assets.svg

<svg id="svg" width="1000" height="1000" viewBox="0 0 1000 1000" style="margin-left:-100%;position:absolute;">
  <defs>

    <lineargradient id="black-gradient" gradientunits="userSpaceOnUse" x1="188.5" y1="800" x2="188.5" y2="1000">
      <stop offset="0" style="stop-color: #000000; stop-opacity: 0;"></stop>
      <stop offset="1" style="stop-color: #000000;"></stop>
    </lineargradient>

    <linearGradient id="redyel" gradientUnits="objectBoundingBox" x1="0" y1="0" x2="0" y2="1">
        <stop offset="0%" stop-color="#ff0000"/>   
        <stop offset="100%" stop-color="#ffff00"/>   
    </linearGradient>
    <linearGradient id="yelgre" gradientUnits="objectBoundingBox" x1="0" y1="0" x2="0" y2="1">
        <stop offset="0%" stop-color="#ffff00"/>   
        <stop offset="100%" stop-color="#00ff00"/>   
    </linearGradient>
    <linearGradient id="grecya" gradientUnits="objectBoundingBox" x1="0" y1="0" x2="0" y2="1">
        <stop offset="0%" stop-color="#00ff00"/>   
        <stop offset="100%" stop-color="#00ffff"/>   
    </linearGradient>
    <linearGradient id="cyablu" gradientUnits="objectBoundingBox" x1="0" y1="0" x2="0" y2="1">
        <stop offset="0%" stop-color="#00ffff"/>   
        <stop offset="100%" stop-color="#0000ff"/>   
    </linearGradient>
    <linearGradient id="blumag" gradientUnits="objectBoundingBox" x1="0" y1="0" x2="0" y2="1">
        <stop offset="0%" stop-color="#0000ff"/>   
        <stop offset="100%" stop-color="#ff00ff"/>   
    </linearGradient>
    <linearGradient id="magred" gradientUnits="objectBoundingBox" x1="0" y1="0" x2="0" y2="1">
        <stop offset="0%" stop-color="#ff00ff"/>   
        <stop offset="100%" stop-color="#ff0000"/>   
    </linearGradient>
    <pattern id="gradient-pattern" width="100" height="1000" patternUnits="userSpaceOnUse">
        <g id="js-gradient">
            <rect x="0" y="0" width="100" height="16.666666667%" fill="url(#redyel)" />
            <rect x="0" y="16.666666667%"  width="100" height="16.666666667%" fill="url(#yelgre)" />
            <rect x="0" y="33.333333334%"  width="100" height="16.666666667%" fill="url(#grecya)" />
            <rect x="0" y="50.000000001%"  width="100" height="16.666666667%" fill="url(#cyablu)" />
            <rect x="0" y="66.666666668%"  width="100" height="16.666666667%" fill="url(#blumag)" />
            <rect x="0" y="83.333333335%"  width="100" height="16.666666667%" fill="url(#magred)" />
        </g>
    </pattern>

    <mask id="mask2">
        <g id="js-shape" transform="translate(300,100)">
            <path vector-effect="non-scaling-stroke" fill="none" d="M160,43 C163.089851,43 166,40.0898509 166,37 C166,32.9101491 163.089851,30 160,30 C155.910149,30 153,32.9101491 153,37 C153,40.0898509 155.910149,43 160,43 Z"></path>
            <path vector-effect="non-scaling-stroke" fill="none" d="M179,59 L165,59 L160,59 L146,59 C144.233408,59 143,60.1196207 143,62 C143,62.8803793 144.233408,64 146,64 L160,64 L165,64 L179,64 C180.766592,64 182,62.8803793 182,62 C182,60.1196207 180.765588,59 179,59 L179,59 Z"></path>
            <path fill="none" d="M159,648 C175.016258,648 188,635.016258 188,619 C188,602.983742 175.016258,590 159,590 C142.983742,590 130,602.983742 130,619 C130,635.016258 142.983742,648 159,648 Z"></path>
            <path vector-effect="non-scaling-stroke" fill="none" d="M27,98 C25.2509962,98 24,99.2491402 24,101 L24,573 L24,573 C24,574.75086 25.2509962,576 27,576 L291,576 C292.748003,576 294,574.75086 294,573 L294,101 L294,101 C294,99.2491402 292.748003,98 291,98 L27,98 L27,98 Z"></path>
            <path vector-effect="non-scaling-stroke" id="case" fill="none" d="M4,94 L2,94 C1.5971015,94.3997378 1,94.9976529 1,96 L1,123 C1,123.844557 1.5971015,124.441472 2,124 L4,124 L4,157 L2,157 C1.5971015,156.903863 1,157.500778 1,158 L1,178 C1,178.815751 1.5971015,179.413666 2,179 L4,179 L4,212 L2,212 C1.5971015,211.963045 1,212.56096 1,213 L1,233 C1,233.875933 1.5971015,234.473848 2,234 L4,234 L4,614 L4,614 C3.66498982,640.928134 25.7068221,663 53,663 L267,663 C293.957169,663 315.999002,640.929134 316,614 L316,53 C316,25.7394871 293.958168,3.66762121 267,4 L264,4 L264,2 C264.007237,1.59691524 263.410135,1 263,1 L213,1 C212.419863,1 211.822762,1.5979151 212,2 L212,4 L53,4 C25.7068221,3.66762121 3.66498982,25.7394871 4,53 L4,53 L4,94 L4,94 Z"></path>
            <path vector-effect="non-scaling-stroke" id="js-charger" fill="none" d="M167,716 L167,702 L152,702 L152,716 L151,716 L151,743 L155,743 L155,759 L157,759 L157,891 L157,962 L162,962 L162,891 L162,891 L162,759 L164,759 L164,743 L168,743 L168,716 L167,716 Z"></path>
        </g>
        <rect stroke-width="0" x="400" y="800" fill="url(#black-gradient)" width="160" height="201"></rect>
        <image id="js-scan-image" xlink:href="mockups/shade.png" x="155" y="-500" height="600" width="600"></image>
    </mask>
  </defs>
</svg>

<svg id="svg" width="1000" height="1000" viewBox="0 0 1000 1000" style="margin-left:-100%;position:absolute;">
  <defs>

    <lineargradient id="black-gradient" gradientunits="userSpaceOnUse" x1="188.5" y1="800" x2="188.5" y2="1000">
      <stop offset="0" style="stop-color: #000000; stop-opacity: 0;"></stop>
      <stop offset="1" style="stop-color: #000000;"></stop>
    </lineargradient>

    <linearGradient id="redyel" gradientUnits="objectBoundingBox" x1="0" y1="0" x2="0" y2="1">
        <stop offset="0%" stop-color="#ff0000"/>   
        <stop offset="100%" stop-color="#ffff00"/>   
    </linearGradient>
    <linearGradient id="yelgre" gradientUnits="objectBoundingBox" x1="0" y1="0" x2="0" y2="1">
        <stop offset="0%" stop-color="#ffff00"/>   
        <stop offset="100%" stop-color="#00ff00"/>   
    </linearGradient>
    <linearGradient id="grecya" gradientUnits="objectBoundingBox" x1="0" y1="0" x2="0" y2="1">
        <stop offset="0%" stop-color="#00ff00"/>   
        <stop offset="100%" stop-color="#00ffff"/>   
    </linearGradient>
    <linearGradient id="cyablu" gradientUnits="objectBoundingBox" x1="0" y1="0" x2="0" y2="1">
        <stop offset="0%" stop-color="#00ffff"/>   
        <stop offset="100%" stop-color="#0000ff"/>   
    </linearGradient>
    <linearGradient id="blumag" gradientUnits="objectBoundingBox" x1="0" y1="0" x2="0" y2="1">
        <stop offset="0%" stop-color="#0000ff"/>   
        <stop offset="100%" stop-color="#ff00ff"/>   
    </linearGradient>
    <linearGradient id="magred" gradientUnits="objectBoundingBox" x1="0" y1="0" x2="0" y2="1">
        <stop offset="0%" stop-color="#ff00ff"/>   
        <stop offset="100%" stop-color="#ff0000"/>   
    </linearGradient>
    <pattern id="gradient-pattern" width="100" height="1000" patternUnits="userSpaceOnUse">
        <g id="js-gradient">
            <rect x="0" y="0" width="100" height="16.666666667%" fill="url(#redyel)" />
            <rect x="0" y="16.666666667%"  width="100" height="16.666666667%" fill="url(#yelgre)" />
            <rect x="0" y="33.333333334%"  width="100" height="16.666666667%" fill="url(#grecya)" />
            <rect x="0" y="50.000000001%"  width="100" height="16.666666667%" fill="url(#cyablu)" />
            <rect x="0" y="66.666666668%"  width="100" height="16.666666667%" fill="url(#blumag)" />
            <rect x="0" y="83.333333335%"  width="100" height="16.666666667%" fill="url(#magred)" />
        </g>
    </pattern>

    <mask id="mask2">
        <g id="js-shape" transform="translate(300,100)">
            <path vector-effect="non-scaling-stroke" fill="none" d="M160,43c3.09,0,6-2.91,6-6c0-4.09-2.91-7-6-7c-4.09,0-7,2.91-7,7
        C153,40.09,155.91,43,160,43z"/>
            <path vector-effect="non-scaling-stroke" fill="none" d="M179,59h-14h-5h-14c-1.767,0-3,1.12-3,3c0,0.88,1.233,2,3,2h14h5h14
                c1.767,0,3-1.12,3-2C182,60.12,180.766,59,179,59L179,59z"/>
            <path fill="none" d="M159,648c16.017,0,29-12.983,29-29s-12.983-29-29-29s-29,12.983-29,29S142.983,648,159,648z"/>
            <path vector-effect="non-scaling-stroke" fill="none" d="M27,98c-1.749,0-3,1.249-3,3v472l0,0c0,1.751,1.251,3,3,3h264
                c1.748,0,3-1.249,3-3V101l0,0c0-1.751-1.252-3-3-3H27L27,98z"/>
            <path id="case_1_" vector-effect="non-scaling-stroke" fill="none" d="M306.1,643.439c6.21-8.212,9.9-18.42,9.9-29.439V53
                c0-27.261-22.042-49.333-49-49h-3V2c0.007-0.403-0.59-1-1-1h-50c-0.58,0-1.177,0.598-1,1v2H53C25.707,3.667,3.665,25.739,4,53l0,0
                v41l0,0H2c-0.403,0.4-1,0.998-1,2v27c0,0.845,0.597,1.441,1,1h2v33H2c-0.403-0.096-1,0.501-1,1v20c0,0.816,0.597,1.414,1,1h2v33H2
                c-0.403-0.037-1,0.561-1,1v20c0,0.876,0.597,1.474,1,1h2v380l0,0c-0.335,26.928,21.707,49,49,49h214
                C282.869,663,297.131,655.226,306.1,643.439"/>
            <path id="js-charger" vector-effect="non-scaling-stroke" fill="none" d="M167,716v-14h-15v14h-1v27h4v16h2v132v71h5v-71l0,0V759h2
                v-16h4v-27H167z"/>
        </g>
        <rect stroke-width="0" x="400" y="800" fill="url(#black-gradient)" width="160" height="201"></rect>
        <image id="js-scan-image" xlink:href="mockups/shade.png" x="155" y="-500" height="600" width="600"></image>
    </mask>
  </defs>
</svg>
